X: 46
T:Mari's Wedding
R:Reel
M:C
L:1/4
Q:300
K:D
|"D"A> BA B| d e f f/2f/2| "G"edBd|"A7"fef<a|
"D"A> BA B| d e f f/2f/2|"G"edBG|"A7"A2 A2:|!
"D"a>aa b|agf2|"G"edBd|"A7"fef<a|
"D"a> aa b|agf2|"G"edBG|"A7"A2 A2:|
